icons/firefox-line.svg

<svg xmlns="http://www.w3.org/2000/svg" width="24" height="24" fill="none"><g clip-path="url(#a)"><g><path fill="#121212" d="M12 2C17.523 2 22 6.477 22 12C22 17.523 17.523 22 12 22C6.477 22 2 17.523 2 12C2 10.536 2.314 9.146 2.88 7.894C3.346 6.955 4.113 6.02 4.73 5.7C4.077 6.983 3.757 8.24 3.69 9.083C4.144 7.583 5.005 6.326 6.21 5.439C8.276 3.92 11.058 3.852 12.166 4.819C10.11 5.526 7.87 8.367 8.363 11.695C8.443 12.245 8.608 12.779 8.852 13.277C8.468 12.267 8.434 10.844 9.054 9.919C9.746 8.889 10.732 8.671 11.26 8.783C11.052 8.739 10.592 9.619 10.524 9.774C10.351 10.168 10.265 10.594 10.273 11.024C10.2879 11.9224 10.6583 12.7782 11.303 13.404C13.225 15.275 16.326 14.539 17.715 12.402C18.668 10.931 18.784 8.434 17.56 6.45C17.2546 5.96689 16.8905 5.52351 16.476 5.13C14.626 3.364 11.996 2.56 9.494 2.925C8.388 3.102 7.447 3.421 6.67 3.881C7.755 2.798 9.91 2 12 2ZM6.875 7.705C4.622 8.486 3.374 10.875 4.296 14.165C4.75724 15.8033 5.7287 17.2519 7.0693 18.3005C8.40991 19.349 10.0499 19.943 11.751 19.996L12 20C14.0359 20.0001 15.9953 19.224 17.4789 17.8297C18.9626 16.4355 19.8588 14.528 19.985 12.496L19.994 12.284C19.864 12.633 19.711 12.958 19.531 13.264L19.391 13.491C17.287 16.73 12.71 17.566 9.911 14.839C9.53024 14.4696 9.20609 14.046 8.949 13.582L8.843 13.381C7.107 12.994 6.259 12.055 6.3 10.564C6.327 9.573 6.53 8.604 6.875 7.704V7.705Z"/></g></g><defs><clipPath id="a"><rect width="24" height="24" fill="white"/></clipPath></defs></svg>

<svg width="24" height="24" fill="none" xmlns="http://www.w3.org/2000/svg"><g clip-path="url(#a)"><path d="M12 2c5.523 0 10 4.477 10 10s-4.477 10-10 10S2 17.523 2 12c0-1.464.314-2.854.88-4.106.466-.939 1.233-1.874 1.85-2.194-.653 1.283-.973 2.54-1.04 3.383.454-1.5 1.315-2.757 2.52-3.644 2.066-1.519 4.848-1.587 5.956-.62-2.056.707-4.296 3.548-3.803 6.876.08.55.245 1.084.489 1.582-.384-1.01-.418-2.433.202-3.358.692-1.03 1.678-1.248 2.206-1.136-.208-.044-.668.836-.736.991a2.97 2.97 0 0 0-.251 1.25 3.395 3.395 0 0 0 1.03 2.38c1.922 1.871 5.023 1.135 6.412-1.002.953-1.471 1.069-3.968-.155-5.952a6.915 6.915 0 0 0-1.084-1.32c-1.85-1.766-4.48-2.57-6.982-2.205-1.106.177-2.047.496-2.824.956C7.755 2.798 9.91 2 12 2ZM6.875 7.705c-2.253.781-3.501 3.17-2.579 6.46a8.004 8.004 0 0 0 7.455 5.831L12 20a8 8 0 0 0 7.985-7.504l.009-.212a6.17 6.17 0 0 1-.463.98l-.14.227c-2.104 3.239-6.681 4.075-9.48 1.348a5.393 5.393 0 0 1-.962-1.257l-.106-.201c-1.736-.387-2.584-1.326-2.543-2.817.027-.991.23-1.96.575-2.86v.001Z" /></g><defs><clipPath id="a"><path fill="#fff" d="M0 0h24v24H0z"/></clipPath></defs></svg>
